X:1
T:O Salutaris
T:O Salutaris
T:Oliver Hayes
C:Oliver Hayes
%%score [ 1 2 3 4 ]
L:1/8
Q:1/4=150
M:3/2
K:Bmin
V:1 treble nm="Soprano"
V:2 treble nm="Alto"
V:3 treble-8 nm="Tenor"
V:4 bass nm="Bass"
V:1
 E8 E4 | F4 G8 | B4 c8 | d4 e8 | e4 e4 B4 | B8 d4 | c4 B4 A4 | B12 | c4 c4 d4 | e8 B4 | c4 d4 e4 | %11
w: O sa-|lu- ta-|ris ho-|sti- a,|quae cae- li|pan- dis|o- * sti-|um,|bel- la pre-|munt ho-|sti- * li-|
w: U- ni|tri- no-|que Do-|mi- no,|sit sem- pi-|ter- na|glo- * ri-|a,|qui vi- tam|si- ne|ter- * mi-|
 f8 c4 | c4 d4 e4- | e4 B4 A4- | A4 F4 E4- | E12 || E12 | D12 | E12 |] %19
w: a, da|ro- bur fer|_ au- xi-|* li- um.|_||||
w: no, no-|bis do- net|_ in pa-|* tri- a.|_|A-||men.|
V:2
 B,8 C4 | D4 E8 | F4 A8 | A4 G8 | G4 E4 G4 | F8 B4 | A8 F4 | G12 | A4 A4 A4 | G8 G4 | A8 G4 | %11
w: O sa-|lu- ta-|ris ho-|sti- a,|quae cae- li|pan- dis|o- sti-|um,|bel- la pre-|munt ho-|sti- li-|
w: U- ni|tri- no-|que Do-|mi- no,|sit sem- pi-|ter- na|glo- ri-|a,|qui vi- tam|si- ne|ter- mi-|
 A8 A4 | A4 F4 G4- | G4 G4 E4- | E4 D4 B,4- | B,12 || C12 | B,12 | B,12 |] %19
w: a, da|ro- bur fer|_ au- xi-|* li- um.|_||||
w: no, no-|bis do- net|_ in pa-|* tri- a.|_|A-||men.|
V:3
 G8 A4 | A4 B8 | d4 e8 | d4 B8 | B4 B4 d4 | d8 d4 | e8 d4 | B12 | c4 f4 d4 | B8 d4 | e4 d4 B4 | %11
w: O sa-|lu- ta-|ris ho-|sti- a,|quae cae- li|pan- dis|o- sti-|um,|bel- la pre-|munt ho-|sti- * li-|
w: U- ni|tri- no-|que Do-|mi- no,|sit sem- pi-|ter- na|glo- ri-|a,|qui vi- tam|si- ne|ter- * mi-|
 d8 e4 | f4 A4 B4- | B4 d4 A4 | c4 A4 G4- | G12 || A12 | F12 | G12 |] %19
w: a, da|ro- bur fer|_ au- xi-|* li- um.|_||||
w: no, no-|bis do- net|_ in pa-|* tri- a.|_|A-||men.|
V:4
 E,8 A,,4 | D,4 G,4 E,4 | B,4 A,4 G,4 | F,4 E,8 | E,4 G,4 G,4 | B,4 A,4 G,4 | A,4 B,4 F,4 | E,12 | %8
w: O sa-|lu- ta- *|ris ho- *|sti- a,|quae cae- li|pan- * dis|o- * sti-|um,|
w: U- ni|tri- no- *|que Do- *|mi- no,|sit sem- pi-|ter- * na|glo- * ri-|a,|
 F,4 A,4 F,4 | E,4 F,4 G,4 | A,4 F,4 E,4 | D,8 A,4 | F,4 D,4 E,4 | F,4 G,4 C,4 | E,4 D,4 E,4- | %15
w: bel- la pre-|munt _ ho-|sti- * li-|a, da|ro- bur fer|_ au- xi-|* li- um.|
w: qui vi- tam|si- * ne|ter- * mi-|no, no-|bis do- net|_ in pa-|* tri- a.|
 E,12 || A,,12 | B,,12 | E,12 |] %19
w: _||||
w: _|A-||men.|

